images/dest/icon--key.svg

<svg width="22" height="22" viewBox="0 0 22 22" fill="none" xmlns="http://www.w3.org/2000/svg">
<path d="M0.414414 17.3564L0.0116497 20.1723C-0.0395491 20.5273 0.0799148 20.8846 0.332495 21.1383C0.585076 21.392 0.943468 21.5103 1.29845 21.4591L4.11438 21.0564C4.54104 20.9961 5.61052 18.1244 5.61052 18.1244C5.61052 18.1244 6.14754 18.5852 6.36713 18.6546C6.83588 18.8025 7.29212 18.3428 7.44571 17.8763L7.88602 15.8602C7.88602 15.8602 8.54251 16.1925 8.7803 16.2414C9.08294 16.304 9.37648 16.1174 9.58469 15.908C9.70642 15.7863 9.802 15.6361 9.85888 15.4632L10.1615 13.5847C10.1615 13.5847 10.9295 13.7975 11.1923 13.8282C11.4916 13.8624 11.7828 13.7099 11.9967 13.4949L13.2915 12.2012C15.4543 12.8975 17.9255 12.3947 19.6413 10.6789C22.0806 8.23845 22.0806 4.26884 19.6413 1.8295C17.2008 -0.609834 13.2312 -0.609834 10.7918 1.8295C9.07611 3.54523 8.57209 6.01529 9.26953 8.17929L0.735259 16.7124C0.561183 16.8865 0.448546 17.1118 0.414414 17.3564ZM17.5615 3.90931C18.8539 5.20407 18.8539 7.30322 17.5615 8.59912L12.8716 3.90931C14.1675 2.61683 16.2667 2.61683 17.5615 3.90931Z" fill="black"/>
<path d="M0.414414 17.3564L0.0116497 20.1723C-0.0395491 20.5273 0.0799148 20.8846 0.332495 21.1383C0.585076 21.392 0.943468 21.5103 1.29845 21.4591L4.11438 21.0564C4.54104 20.9961 5.61052 18.1244 5.61052 18.1244C5.61052 18.1244 6.14754 18.5852 6.36713 18.6546C6.83588 18.8025 7.29212 18.3428 7.44571 17.8763L7.88602 15.8602C7.88602 15.8602 8.54251 16.1925 8.7803 16.2414C9.08294 16.304 9.37648 16.1174 9.58469 15.908C9.70642 15.7863 9.802 15.6361 9.85888 15.4632L10.1615 13.5847C10.1615 13.5847 10.9295 13.7975 11.1923 13.8282C11.4916 13.8624 11.7828 13.7099 11.9967 13.4949L13.2915 12.2012C15.4543 12.8975 17.9255 12.3947 19.6413 10.6789C22.0806 8.23845 22.0806 4.26884 19.6413 1.8295C17.2008 -0.609834 13.2312 -0.609834 10.7918 1.8295C9.07611 3.54523 8.57209 6.01529 9.26953 8.17929L0.735259 16.7124C0.561183 16.8865 0.448546 17.1118 0.414414 17.3564ZM17.5615 3.90931C18.8539 5.20407 18.8539 7.30322 17.5615 8.59912L12.8716 3.90931C14.1675 2.61683 16.2667 2.61683 17.5615 3.90931Z" fill="url(#paint0_linear)"/>
<path d="M0.414414 17.3564L0.0116497 20.1723C-0.0395491 20.5273 0.0799148 20.8846 0.332495 21.1383C0.585076 21.392 0.943468 21.5103 1.29845 21.4591L4.11438 21.0564C4.54104 20.9961 5.61052 18.1244 5.61052 18.1244C5.61052 18.1244 6.14754 18.5852 6.36713 18.6546C6.83588 18.8025 7.29212 18.3428 7.44571 17.8763L7.88602 15.8602C7.88602 15.8602 8.54251 16.1925 8.7803 16.2414C9.08294 16.304 9.37648 16.1174 9.58469 15.908C9.70642 15.7863 9.802 15.6361 9.85888 15.4632L10.1615 13.5847C10.1615 13.5847 10.9295 13.7975 11.1923 13.8282C11.4916 13.8624 11.7828 13.7099 11.9967 13.4949L13.2915 12.2012C15.4543 12.8975 17.9255 12.3947 19.6413 10.6789C22.0806 8.23845 22.0806 4.26884 19.6413 1.8295C17.2008 -0.609834 13.2312 -0.609834 10.7918 1.8295C9.07611 3.54523 8.57209 6.01529 9.26953 8.17929L0.735259 16.7124C0.561183 16.8865 0.448546 17.1118 0.414414 17.3564ZM17.5615 3.90931C18.8539 5.20407 18.8539 7.30322 17.5615 8.59912L12.8716 3.90931C14.1675 2.61683 16.2667 2.61683 17.5615 3.90931Z" fill="url(#paint1_linear)"/>
<path d="M0.414414 17.3564L0.0116497 20.1723C-0.0395491 20.5273 0.0799148 20.8846 0.332495 21.1383C0.585076 21.392 0.943468 21.5103 1.29845 21.4591L4.11438 21.0564C4.54104 20.9961 5.61052 18.1244 5.61052 18.1244C5.61052 18.1244 6.14754 18.5852 6.36713 18.6546C6.83588 18.8025 7.29212 18.3428 7.44571 17.8763L7.88602 15.8602C7.88602 15.8602 8.54251 16.1925 8.7803 16.2414C9.08294 16.304 9.37648 16.1174 9.58469 15.908C9.70642 15.7863 9.802 15.6361 9.85888 15.4632L10.1615 13.5847C10.1615 13.5847 10.9295 13.7975 11.1923 13.8282C11.4916 13.8624 11.7828 13.7099 11.9967 13.4949L13.2915 12.2012C15.4543 12.8975 17.9255 12.3947 19.6413 10.6789C22.0806 8.23845 22.0806 4.26884 19.6413 1.8295C17.2008 -0.609834 13.2312 -0.609834 10.7918 1.8295C9.07611 3.54523 8.57209 6.01529 9.26953 8.17929L0.735259 16.7124C0.561183 16.8865 0.448546 17.1118 0.414414 17.3564ZM17.5615 3.90931C18.8539 5.20407 18.8539 7.30322 17.5615 8.59912L12.8716 3.90931C14.1675 2.61683 16.2667 2.61683 17.5615 3.90931Z" fill="url(#paint2_linear)"/>
<defs>
<linearGradient id="paint0_linear" x1="10.7354" y1="0" x2="10.7354" y2="21.4708" gradientUnits="userSpaceOnUse">
<stop stop-color="#C9B2EF"/>
<stop offset="1" stop-color="#543784"/>
</linearGradient>
<linearGradient id="paint1_linear" x1="11.2006" y1="-3.00475" x2="11.3908" y2="26.7211" gradientUnits="userSpaceOnUse">
<stop stop-color="#D9C88B"/>
<stop offset="1" stop-color="#AA9036"/>
</linearGradient>
<linearGradient id="paint2_linear" x1="11.2006" y1="-3.00475" x2="11.3908" y2="26.7211" gradientUnits="userSpaceOnUse">
<stop offset="0.0904391" stop-color="#DDAE09"/>
<stop offset="0.127005" stop-color="#FFF5D0"/>
<stop offset="0.271574" stop-color="#D1BA6A"/>
<stop offset="0.510797" stop-color="#B9A049"/>
<stop offset="0.706074" stop-color="#AB9135"/>
<stop offset="0.823361" stop-color="#AD9D61"/>
</linearGradient>
</defs>
</svg>

<svg width="22" height="22" fill="none" xmlns="http://www.w3.org/2000/svg"><path d="M.414 17.356l-.402 2.816a1.139 1.139 0 001.286 1.287l2.816-.403c.427-.06 1.497-2.932 1.497-2.932s.537.461.756.53c.469.148.925-.311 1.079-.778l.44-2.016s.657.332.894.381c.303.063.596-.124.805-.333.121-.122.217-.272.274-.445l.303-1.878s.768.212 1.03.243c.3.034.59-.118.805-.333L13.29 12.2a6.26 6.26 0 006.35-1.522 6.265 6.265 0 000-8.85 6.266 6.266 0 00-8.85 0A6.257 6.257 0 009.27 8.18L.735 16.712a1.13 1.13 0 00-.32.644zM17.561 3.91a3.321 3.321 0 010 4.69l-4.69-4.69a3.321 3.321 0 014.69 0z" fill="#000"/><path d="M.414 17.356l-.402 2.816a1.139 1.139 0 001.286 1.287l2.816-.403c.427-.06 1.497-2.932 1.497-2.932s.537.461.756.53c.469.148.925-.311 1.079-.778l.44-2.016s.657.332.894.381c.303.063.596-.124.805-.333.121-.122.217-.272.274-.445l.303-1.878s.768.212 1.03.243c.3.034.59-.118.805-.333L13.29 12.2a6.26 6.26 0 006.35-1.522 6.265 6.265 0 000-8.85 6.266 6.266 0 00-8.85 0A6.257 6.257 0 009.27 8.18L.735 16.712a1.13 1.13 0 00-.32.644zM17.561 3.91a3.321 3.321 0 010 4.69l-4.69-4.69a3.321 3.321 0 014.69 0z" fill="url(#paint0_linear)"/><defs><linearGradient id="paint0_linear" x1="10.735" y1="0" x2="10.735" y2="21.471" gradientUnits="userSpaceOnUse"><stop stop-color="#C9B2EF"/><stop offset="1" stop-color="#543784"/></linearGradient></defs></svg>
